src/assets/images/fa-brands_telegram-plane.svg

<svg width="20" height="20" viewBox="0 0 20 20" fill="none" xmlns="http://www.w3.org/2000/svg">
<path d="M17.7874 4.57286L15.0955 16.8721C14.8924 17.7401 14.3628 17.9561 13.6101 17.5472L9.50859 14.619L7.52949 16.4631C7.31047 16.6753 7.1273 16.8528 6.7052 16.8528L6.99987 12.8058L14.6017 6.15077C14.9322 5.86528 14.53 5.70711 14.088 5.9926L4.69026 11.7255L0.644449 10.4987C-0.235594 10.2325 -0.251522 9.64609 0.827625 9.23714L16.6525 3.3306C17.3852 3.0644 18.0263 3.48878 17.7874 4.57286Z" fill="white"/>
</svg>

<svg xmlns="http://www.w3.org/2000/svg" width="20" height="20" fill="none" viewBox="0 0 20 20"><path fill="#fff" d="m17.787 4.573-2.691 12.3c-.204.867-.733 1.083-1.486.674L9.51 14.62l-1.98 1.844c-.219.212-.402.39-.824.39L7 12.806l7.602-6.655c.33-.286-.072-.444-.514-.158L4.69 11.726.644 10.499c-.88-.267-.896-.853.184-1.262l15.825-5.906c.732-.267 1.373.158 1.134 1.242"/></svg>
